packages/core/src/svgs/tokens/branded/SIS.svg

<svg width="24" height="24" viewBox="0 0 24 24" fill="none" xmlns="http://www.w3.org/2000/svg">
<path d="M9.19999 3.51173H8.75294L8.47058 3.8529V4.30586L8.37059 4.39998L7.91176 4.45879L6.79411 5.8882L6.85294 6.3588L6.72353 6.51761L6.74117 6.67644L6.11765 6.99997V9.67651L6.70588 10.0176L6.69999 10.2235L6.81765 10.347L6.77058 10.794L7.87058 12.2235L8.32941 12.2823L8.47058 12.3999V12.8529L8.74705 13.1941H8.75882H8.75294V13.3588L8.47058 13.6882V16.0353L8.28824 16.1176H5.64117L5.52941 16.0353V15.5647L5.17646 15.2353L5.18235 15.1L5.52941 14.7765V12.6824L5.21764 12.353L5.22353 12.2117L5.52941 11.9058V11.4529L5.18822 11.1177H4.74117L4.68234 11.0588L4.62353 10.5941L2.74705 9.32349L2.29411 9.38237L2 9.74115L2.05881 10.2118L3.94117 11.494L4.35293 11.4529V11.9058L4.72941 12.247H4.75882V12.3294L4.35293 12.6588V14.7588L4.72352 15.0941V15.2353H4.71765L4.35293 15.5647V16.0353L4.71765 16.3529H5.17646L5.32353 16.5059V16.9764L5.64117 17.2942H8.28824L8.47058 16.9764V16.5059L8.62941 16.3529H9.22352L9.64706 16.0353V13.6882L9.22352 13.3588L9.21764 13.1823L9.64706 12.8529V12.3999L9.20588 12H8.75294L8.69411 11.9117L8.74705 11.5235L7.62941 10.0883L7.17058 10.0294V10.0235L7.29411 9.69408V7.02938L7.2 6.69408V6.66468L7.21765 6.64703L7.67646 6.59409L8.77647 5.15879L8.71764 4.69997L8.77647 4.64115H9.21764L9.64706 4.29997V3.8529L9.69414 3.76468H14.3177L14.353 3.8529V4.29997L14.7941 4.64115H15.2412L15.2882 4.69997L15.2353 5.15879L16.3354 6.59409L16.7941 6.65292L16.8118 6.66468V6.69408L16.7059 7.02938V9.69408L16.8411 10.0235V10.0353L16.3823 10.0883L15.2648 11.5235L15.3235 11.9882L15.2353 12H14.7764L14.353 12.3999V12.8529L14.7764 13.1941H14.7823L14.7764 13.3588L14.353 13.6882V16.0353L14.7764 16.3529H15.2353L15.5294 16.5059V16.9764L15.8529 17.2942H18.3824L18.6941 16.9764V16.5059L18.8412 16.3529H19.3001L19.647 16.0353V15.5647L19.3001 15.2353V15.0941L19.647 14.7588V12.6588L19.2589 12.3294V12.247H19.2883L19.647 11.9058V11.4529L20.0824 11.494L21.947 10.2059L22 9.74115L21.7177 9.38827L21.2647 9.32939L19.4 10.5941L19.3412 11.0647L19.2824 11.1177H18.8294L18.4706 11.4529V11.9058L18.7941 12.2117L18.8059 12.353L18.4706 12.6824V14.7765L18.8353 15.1L18.8412 15.2353L18.4706 15.5647V16.0353L18.3765 16.1176H15.7118L15.5294 16.0353V13.6882L15.2471 13.3588V13.1941L15.2412 13.1882L15.5706 12.8529V12.3999H15.5824L15.6823 12.2823L16.1411 12.2235L17.2412 10.794L17.1942 10.347L17.3118 10.2294L17.3059 10.0176L17.8824 9.67651V6.99997L17.2706 6.67644L17.2882 6.51761L17.1589 6.3588L17.2176 5.8882L16.1 4.45879L15.6411 4.39998L15.5294 4.30586V3.8529L15.253 3.51173H14.8118L14.6647 3.39409V2.9235L14.3118 2.58821H9.69414L9.34112 2.9235V3.39409L9.19999 3.51173ZM11.0589 10.2353H10.5706L10.2353 10.5588V11.6764L10.5706 12H11.0589L11.4117 11.6764V10.5588L11.0589 10.2353ZM13.4294 10.2353H12.9412L12.5883 10.5588V11.6764L12.9412 12H13.4294L13.7647 11.6764V10.5588L13.4294 10.2353ZM11.4117 17.4823V17.0353L11.0882 16.7118L10.6176 16.7059L10.2353 17.0412V17.4823L10.1177 17.6118H9.68824L7.47647 19.7293V20.0999L7.3294 20.2353H4.99999L4.93529 20.0999V19.7293L4.53529 19.4117H4.07059L3.75883 19.7293V20.1882L4.07059 20.5H4.54118L4.68823 20.647V21.1L4.99999 21.4118H7.32353L7.64705 21.1V20.647L7.79412 20.5L8.25882 20.5059L10.4647 18.3882L10.4706 17.9412L10.6059 17.794H11.0471L11.3999 17.4823H11.4117ZM12.5883 17.4823L12.9412 17.7999H13.3882L13.5236 17.9412V18.3823L15.7353 20.5059H16.1941L16.3411 20.647V21.1L16.6705 21.4118H18.9882L19.3058 21.1V20.647L19.453 20.5H19.9235L20.2353 20.1882V19.7293L19.9177 19.4117H19.453L19.0588 19.7293V20.0999L18.9882 20.2353H16.6705L16.5235 20.0999V19.647L14.3118 17.6118H13.853L13.7647 17.4823V17.0235L13.3764 16.7059H12.9118L12.5883 17.0353V17.4823Z" fill="#00FE01"/>
</svg>

<svg xmlns="http://www.w3.org/2000/svg" width="24" height="24" fill="none" viewBox="0 0 24 24">
    <path fill="#00FE01" d="M9.2 3.512h-.447l-.282.34v.454l-.1.094-.46.059-1.117 1.43.059.47-.13.159.018.158L6.118 7v2.677l.588.34-.006.207.118.123-.047.447 1.1 1.43.458.058.142.118v.453l.276.341h.012-.006v.165l-.282.33v2.346l-.183.083H5.641l-.112-.083v-.47l-.353-.33.006-.135.347-.323v-2.095l-.311-.329.006-.141.305-.306v-.453l-.34-.335H4.74l-.059-.06-.058-.464-1.877-1.27-.453.058-.294.36.059.47 1.882 1.282.412-.041v.453l.376.341h.03v.082l-.406.33v2.1l.37.335v.141h-.005l-.365.33v.47l.365.318h.458l.148.153v.47l.317.318h2.647l.183-.318v-.47l.158-.153h.595l.423-.318v-2.347l-.423-.33-.006-.176.43-.33V12.4l-.442-.4h-.453l-.059-.088.053-.389-1.118-1.435-.458-.059v-.005l.123-.33V7.03L7.2 6.694v-.03l.018-.017.458-.053 1.1-1.435-.058-.459.058-.059h.442l.43-.341v-.447l.046-.088h4.624l.035.088V4.3l.441.341h.447l.047.059-.053.459 1.1 1.435.46.059.017.012v.03l-.106.334v2.665l.135.33v.011l-.459.053-1.117 1.436.058.464-.088.012h-.459l-.423.4v.453l.423.341h.006l-.006.165-.423.33v2.346l.423.318h.46l.293.153v.47l.324.318h2.53l.311-.318v-.47l.147-.153h.46l.346-.318v-.47l-.347-.33v-.14l.347-.336v-2.1l-.388-.33v-.082h.03l.358-.341v-.453l.435.041 1.865-1.288L22 9.74l-.282-.353-.453-.059-1.865 1.265-.059.47-.059.054h-.453l-.358.335v.453l.323.306.012.141-.335.33v2.094l.364.323.006.135-.37.33v.47l-.095.083h-2.664l-.183-.083v-2.347l-.282-.33v-.164l-.006-.006.33-.335V12.4h.011l.1-.118.46-.059 1.1-1.429-.048-.447.118-.118-.006-.211.576-.341V7l-.611-.324.017-.158-.13-.16.06-.47-1.118-1.43-.459-.058-.112-.094v-.453l-.276-.341h-.441l-.147-.118v-.47l-.353-.336H9.694l-.353.336v.47zm1.859 6.723h-.488l-.336.324v1.117l.336.324h.488l.353-.324V10.56zm2.37 0h-.488l-.353.324v1.117l.353.324h.488l.336-.324V10.56zm-2.017 7.247v-.447l-.324-.323-.47-.006-.383.335v.441l-.117.13h-.43l-2.212 2.117v.37l-.147.136H5l-.065-.135v-.37l-.4-.318h-.464l-.312.317v.46l.312.311h.47l.147.147v.453l.312.312h2.324l.323-.312v-.453l.147-.147.465.006 2.206-2.118.006-.447.135-.147h.441l.353-.312zm1.176 0 .353.318h.447l.136.141v.441l2.211 2.124h.46l.146.141v.453l.33.312h2.317l.318-.312v-.453l.147-.147h.47l.312-.312v-.459l-.317-.317h-.465l-.394.317v.37l-.07.136H16.67l-.148-.135v-.453l-2.211-2.035h-.459l-.088-.13v-.459l-.389-.317h-.464l-.324.33z"/>
</svg>
